static/img/icons/dociconblue.svg

<svg fill="none" viewBox="0 .43 10 13" xmlns="http://www.w3.org/2000/svg" xmlns:xlink="http://www.w3.org/1999/xlink"><clipPath id="a"><path d="m0 .427979h10v13h-10z"/></clipPath><g clip-path="url(#a)"><path clip-rule="evenodd" d="m.764618 2.46863c0-.39783.158035-.77936.439342-1.06066.2813-.28131.66283-.439342 1.06066-.439342h3.4395c.39779.000085.77926.158172 1.0605.439502l2.5605 2.5605c.28132.28124.43941.66271.4395 1.0605v6.43947c0 .3979-.15804.7794-.43934 1.0607-.28131.2813-.66284.4393-1.06066.4393h-6c-.39783 0-.77936-.158-1.06066-.4393-.281307-.2813-.439342-.6628-.439342-1.0607zm1.500002 4.5c0-.19891.07902-.38968.21967-.53033s.33142-.21967.53033-.21967h4.5c.19891 0 .38968.07902.53033.21967s.21967.33142.21967.53033-.07902.38968-.21967.53033-.33142.21967-.53033.21967h-4.5c-.19891 0-.38968-.07902-.53033-.21967s-.21967-.33142-.21967-.53033zm.75 2.25c-.19891 0-.38968.07902-.53033.21967s-.21967.33142-.21967.53033c0 .19887.07902.38967.21967.53037.14065.1406.33142.2196.53033.2196h4.5c.19891 0 .38968-.079.53033-.2196.14065-.1407.21967-.3315.21967-.53037 0-.19891-.07902-.38968-.21967-.53033s-.33142-.21967-.53033-.21967z" fill="#474dff" fill-rule="evenodd"/></g></svg>

<svg width="10" height="14" viewBox="0 0 10 14" fill="none" xmlns="http://www.w3.org/2000/svg">
<g clip-path="url(#clip0_227_8)">
<path fill-rule="evenodd" clip-rule="evenodd" d="M0.764618 2.46863C0.764618 2.0708 0.922653 1.68927 1.20396 1.40797C1.48526 1.12666 1.86679 0.968628 2.26462 0.968628H5.70412C6.10191 0.968713 6.48338 1.1268 6.76462 1.40813L9.32512 3.96863C9.60644 4.24987 9.76453 4.63134 9.76462 5.02913V11.4686C9.76462 11.8665 9.60658 12.248 9.32528 12.5293C9.04397 12.8106 8.66244 12.9686 8.26462 12.9686H2.26462C1.86679 12.9686 1.48526 12.8106 1.20396 12.5293C0.922653 12.248 0.764618 11.8665 0.764618 11.4686V2.46863ZM2.26462 6.96863C2.26462 6.76972 2.34364 6.57895 2.48429 6.4383C2.62494 6.29765 2.81571 6.21863 3.01462 6.21863H7.51462C7.71353 6.21863 7.9043 6.29765 8.04495 6.4383C8.1856 6.57895 8.26462 6.76972 8.26462 6.96863C8.26462 7.16754 8.1856 7.35831 8.04495 7.49896C7.9043 7.63961 7.71353 7.71863 7.51462 7.71863H3.01462C2.81571 7.71863 2.62494 7.63961 2.48429 7.49896C2.34364 7.35831 2.26462 7.16754 2.26462 6.96863ZM3.01462 9.21863C2.81571 9.21863 2.62494 9.29765 2.48429 9.4383C2.34364 9.57895 2.26462 9.76972 2.26462 9.96863C2.26462 10.1675 2.34364 10.3583 2.48429 10.499C2.62494 10.6396 2.81571 10.7186 3.01462 10.7186H7.51462C7.71353 10.7186 7.9043 10.6396 8.04495 10.499C8.1856 10.3583 8.26462 10.1675 8.26462 9.96863C8.26462 9.76972 8.1856 9.57895 8.04495 9.4383C7.9043 9.29765 7.71353 9.21863 7.51462 9.21863H3.01462Z" fill="#474DFF"/>
</g>
<defs>
<clipPath id="clip0_227_8">
<rect width="10" height="13" fill="white" transform="translate(0 0.427979)"/>
</clipPath>
</defs>
</svg>
